X: 794
T: Connie the Soldier.
T: Humors of Abbeyfeale.
C:F. O'Neill.
B:O'Neill's Music of Ireland
N:O'Neill's - 794
Z:Transcribed by Stephen Foy (shf@access.digex.net)
Z:abc 1.6
R:Jig
M:6/8
K:D
EAA A2 d|cAG EFD|DGG DEE|DGG GED|\
EAA A2 d|cAG EFD|EFG AGE|EDD D2:|
||(d/e/)|fdd ede|fdd d2 e|fed ded|\
cAA A2 (d/e/)|fdd ede|fed A2 G|DFG AGE|EDD D2:|


